!!!!SEGMENT: pl-kk--kk-i-6--064-004_lilius-franciszek--missa-pro-defunctis-absolve-domine.krn
!!!cenid: 16xx:1063
!!!COM: Lilius, Franciszek
!!!COM-rismid: pe30020509
!!!CDT: ~1600-1657
!!!CNT: Polish
!!!OPR: Missa pro defunctis
!!!OTL: Absolve Domine
!!!OMV: 004
!!!PDT:
!!!AGN:
!!!SMS-siglum: PL-Kk
!!!SMS-shelfmark: Kk.I.6
!!!SMS-shelfwork: 064-004 M
!!!SMS-variant:
!!!SMS-altvar:
!!!NIFC-rismid: 1001136594
!!!URL-scan: http://repozytorium.nifc.pl/skany/pl-kk-nut--i-6
!!!ONB-nifc: UWAGA: C (skan 0088-0092), T (skan 0200-0206), B (skan 0313-0319) Części Mszy: 1. Requiem aeternam, 2. Kyrie, 3. Requiem aeternam, 4. Absolve Domine, 5. Dies irae, 6. Domine Jesu Christe, 7. Sanctus, 8. Agnus Dei, 9. Lux aeterna
!!!key: f:lid
**kern	**text	**kern	**text	**kern	**text
*group1	*	*group1	*	*group1	*
*part3	*part3	*part2	*part2	*part1	*part1
*staff3	*staff3	*staff2	*staff2	*staff1	*staff1
*I"Baſsus.	*	*I"Tenor.	*	*I"Cantus.	*
*I'[B]	*	*I'[T]	*	*I'[S]	*
*Ibass	*	*Itenor	*	*Isoprn	*
*ICvox	*	*ICvox	*	*ICvox	*
*clefF4	*	*clefC4	*	*clefC4	*
*k[b-]	*	*k[b-]	*	*k[b-]	*
*F:	*	*F:	*	*F:	*
*M4/4	*	*M4/4	*	*M4/4	*
*met(C)	*	*met(C)	*	*met(C)	*
=1-	=1-	=1-	=1-	=1-	=1-
!	!	!	!	!LO:TX:t=P:problem:układ ksiąg, a co za tym idzie, skanów, jest przypadkowy, a po ukształtowaniu głosów widać, że tenorem nie jest to, co w księdze drugiej, tylko to, co w księdze pierwszej.	!
1F	Ab-	1.A	Ab-	1F	Ab-
=2-	=2-	=2-	=2-	=2-	=2-
*lig	*	*	*	*lig	*
1D	-ſol-	.	.	1F	-ſol-
!	!	!LO:TX:t=P:problem:# above	!	!	!
!	!	!LO:N:acc=#	!	!	!
.	.	2Bn\	-ſol-	.	.
=3-	=3-	=3-	=3-	=3-	=3-
1C	.	1c	.	1G	.
*Xlig	*	*	*	*Xlig	*
=4-	=4-	=4-	=4-	=4-	=4-
*lig	*	*	*	*lig	*
1BB-	.	1d	.	1B-	.
=5-	=5-	=5-	=5-	=5-	=5-
1C	.	2.c\	-ue	1G	.
.	.	4B-y\	.	.	.
*Xlig	*	*	*	*Xlig	*
=6-	=6-	=6-	=6-	=6-	=6-
*	*	*	*	*lig	*
1FF	-ve	4A\	.	1F	.
.	.	4G\	.	.	.
.	.	1F/	Do-	.	.
=7-	=7-	=7-	=7-	=7-	=7-
0C	ab-	.	.	1G	.
.	.	4E/	.	.	.
.	.	4D/	.	.	.
*	*	*	*	*Xlig	*
=8-	=8-	=8-	=8-	=8-	=8-
*	*	*	*	*lig	*
.	.	1E	-mi-	1G	-ue
=9-	=9-	=9-	=9-	=9-	=9-
*lig	*	*	*	*	*
1D	-sol-	1F	.	1F	.
*	*	*	*	*Xlig	*
=10-	=10-	=10-	=10-	=10-	=10-
*col	*	*	*	*	*
2.F\	.	1F	-ne	1F	Do-
*Xlig	*	*	*	*	*
4E\	.	.	.	.	.
*Xcol	*	*	*	*	*
=11-	=11-	=11-	=11-	=11-	=11-
*	*	*	*	*lig	*
1D	.	1ryy	.	1B-	.
=12-	=12-	=12-	=12-	=12-	=12-
*	*	*lig	*	*	*
1C	.	1G	Ab-	1c	.
*	*	*	*	*Xlig	*
!LO:SIC:v:s:t=custos BB-	!	!	!	!	!
!LO:LB:g=original	!	!	!	!	!
=13-	=13-	=13-	=13-	=13-	=13-
*	*	*	*	*lig	*
2BB-/	.	1B-	.	1G	.
2GG/	-ue	.	.	.	.
*	*	*Xlig	*	*	*
=14-	=14-	=14-	=14-	=14-	=14-
*lig	*	*	*	*	*
1D	Do-	2A\	-ſol-	1F	.
.	.	1B-\	.	.	.
*	*	*	*	*Xlig	*
=15-	=15-	=15-	=15-	=15-	=15-
*col	*	*	*	*	*
2.C/	.	.	.	1E-X	-mi-
.	.	2A\	.	.	.
*Xlig	*	*	*	*	*
4C/	-mi-	.	.	.	.
*Xcol	*	*	*	*	*
=16-	=16-	=16-	=16-	=16-	=16-
*	*	*	*	*lig	*
1BB-	-ne	0B-	-ue	1F	-ne
=17-	=17-	=17-	=17-	=17-	=17-
1r	.	.	.	1G	.
*	*	*	*	*Xlig	*
=18-	=18-	=18-	=18-	=18-	=18-
*lig	*	*lig	*	*	*
1FF	a-	1A	Do-	1F	.
=19-	=19-	=19-	=19-	=19-	=19-
*col	*	*col	*	*lig	*
2.BB-/	.	2.d\	.	1F	a-
*Xlig	*	*Xlig	*	*	*
4BB-/	.	4d\	-mi-	.	.
*Xcol	*	*Xcol	*	*	*
=20-	=20-	=20-	=20-	=20-	=20-
2BB-/	-ni-	2d\	-ne	1B-	.
*	*	*	*ij	*	*
2GG/	-mas	2B-\	ab-	.	.
*	*	*	*	*Xlig	*
!	!	!LO:SIC:v:s:t=custos d	!	!	!
!	!	!LO:LB:g=original	!	!	!
=21-	=21-	=21-	=21-	=21-	=21-
!LO:TX:t=P:problem:od tego miejsca późniejsze przeróbki w podpisaniu tekstu	!	!	!	!	!
2.G\	a-	4d\	-ſol-	1B-	-ni-
.	.	4c\	.	.	.
.	.	4B-\	.	.	.
4F\	.	4A\	.	.	.
=22-	=22-	=22-	=22-	=22-	=22-
2E-X\	-ni-	2G\	.	1B-	-mas
2D\	-mas	2B-\	-ue	.	.
=23-	=23-	=23-	=23-	=23-	=23-
2.E-X\	om-	2.G/	Do-	1B-	om-
4E-\	-ni-	4G/	-mi-	.	.
=24-	=24-	=24-	=24-	=24-	=24-
1BB-	-um	2F/	-ne	1B-	-ni-
*	*	*	*Xij	*	*
.	.	1B-\	ab-	.	.
!	!	!	!	!LO:SIC:v:s:t=custos B-	!
!	!	!	!	!LO:LB:g=original	!
=25-	=25-	=25-	=25-	=25-	=25-
*lig	*	*	*	*	*
1E-X	fi-	.	.	1B-	-um
.	.	2.e-X\	-ſol-	.	.
=26-	=26-	=26-	=26-	=26-	=26-
*col	*	*	*	*	*
2.B-\	-de-	.	.	1B-	fi-
.	.	4e-\	-ue	.	.
.	.	2d\	.	.	.
*Xlig	*	*	*	*	*
4B-\	-li-	.	.	.	.
*Xcol	*	*	*	*	*
=27-	=27-	=27-	=27-	=27-	=27-
*	*	*	*	*lig	*
2B-\	-um	2.e-X\	Do-	1G	-de-
2E-X\	.	.	.	.	.
.	.	4e-\	-mi-	.	.
!LO:SIC:v:s:t=custos BB-	!	!	!	!	!
!LO:PB:g=original	!	!	!	!	!
=28-	=28-	=28-	=28-	=28-	=28-
2.BB-/	a-	2d\	-ne	1B-	.
.	.	2D/	.	.	.
4AA/	.	.	.	.	.
*	*	*	*	*Xlig	*
=29-	=29-	=29-	=29-	=29-	=29-
2GG/	-ni-	2.G/	.	1B-	-li-
2GG/	-mas	.	.	.	.
.	.	4G/	.	.	.
=30-	=30-	=30-	=30-	=30-	=30-
1D	o-	2F/	.	1B-	-um
.	.	2.D/	.	.	.
=31-	=31-	=31-	=31-	=31-	=31-
2.BB-/	.	.	.	1B-	de-
.	.	4E/	.	.	.
.	.	1F/	.	.	.
4AA/	.	.	.	.	.
=32-	=32-	=32-	=32-	=32-	=32-
2GG/	.	.	.	1B-	-fu(n)-
2GG/	-mni-	2E/	.	.	.
=33-	=33-	=33-	=33-	=33-	=33-
*	*	*	*	*lig	*
1FF	-um	2F/	.	1A	-cto-
.	.	1c\	.	.	.
=34-	=34-	=34-	=34-	=34-	=34-
1F	fi-	.	.	1c	.
.	.	2.f\	a-	.	.
*	*	*	*	*Xlig	*
=35-	=35-	=35-	=35-	=35-	=35-
*	*	*	*	*lig	*
2.B-\	-de-	.	.	1d	.
.	.	4f\	-ni-	.	.
!	!	!LO:SIC:v:s:t=custos f	!	!	!
!	!	!LO:LB:g=original	!	!	!
.	.	2f\	-mas	.	.
4B-\	-li-	.	.	.	.
=36-	=36-	=36-	=36-	=36-	=36-
2B-\	-um	2.d\	om-	1B-	.
2G\	de-	.	.	.	.
.	.	4d\	-ni-	.	.
*	*	*	*	*Xlig	*
=37-	=37-	=37-	=37-	=37-	=37-
!	!	!LO:TX:t=P:problem:coś na kształt litery "i" między nutami	!	!	!
2.E-X\	-[[func-	2d\	-um	1G	.
.	.	2c\	fi-	.	.
4E-\	-to-	.	.	.	.
=38-	=38-	=38-	=38-	=38-	=38-
*	*	*lig	*	*lig	*
1BB-	-rum	1d	-de-	1B-	-rum
=39-	=39-	=39-	=39-	=39-	=39-
1C	ab	1.c	.	1G	.
*	*	*Xlig	*	*Xlig	*
=40-	=40-	=40-	=40-	=40-	=40-
*	*	*	*	*lig	*
2.D/	om-	.	.	1F	.
!	!	!LO:TX:t=P:problem:# above	!	!	!
!	!	!LO:N:acc=#	!	!	!
.	.	2Bn\	-li-	.	.
4D/	-ni	.	.	.	.
=41-	=41-	=41-	=41-	=41-	=41-
1C	Vin-	1c	-um	1G	.
*	*	*	*	*Xlig	*
=42-	=42-	=42-	=42-	=42-	=42-
1FF	-cu-	2.A\	fi-	1F	.
.	.	4A\	-de-	.	.
!LO:SIC:v:s:t=custos GG	!	!	!	!	!
!LO:LB:g=original	!	!	!	!	!
=43-	=43-	=43-	=43-	=43-	=43-
*	*	*	*	*lig	*
0GG	-lo	4G/	.	1B-	.
.	.	4F/	.	.	.
.	.	4G/	.	.	.
.	.	4A/	.	.	.
=44-	=44-	=44-	=44-	=44-	=44-
.	.	2B-y\	.	1G	.
.	.	1G/	.	.	.
*	*	*	*	*Xlig	*
=45-	=45-	=45-	=45-	=45-	=45-
1D	ab	.	.	1A	.
!	!	!LO:TX:t=P:problem:# below	!	!	!
.	.	2F#X/	-li-	.	.
=46-	=46-	=46-	=46-	=46-	=46-
*	*	*	*	*lig	*
2GG/	om-	1G	-um	1B-	.
2BB-/	-ni]]	.	.	.	.
=47-	=47-	=47-	=47-	=47-	=47-
2D/	Vin-	1r	.	1F	.
2F\	.	.	.	.	.
*	*	*	*	*Xlig	*
=48-	=48-	=48-	=48-	=48-	=48-
1.C	-cu-	2r	.	1E-X	.
*	*	*	*ij	*	*
.	.	2E-X/	fi-	.	.
=49-	=49-	=49-	=49-	=49-	=49-
*	*	*lig	*	*	*
.	.	1G	.	1E-X	ab
2C/	-lo	.	.	.	.
=50-	=50-	=50-	=50-	=50-	=50-
*	*	*	*	*lig	*
2.BB-/	de-	1B-	.	1G	om-
4AA/	-li-	.	.	.	.
*	*	*Xlig	*	*	*
=51-	=51-	=51-	=51-	=51-	=51-
*lig	*	*	*	*	*
1GG	-cto	2B-\	-de-	1B-	.
.	.	1d\	.	.	.
*	*	*	*	*Xlig	*
!	!	!	!	!LO:SIC:v:s:t=custos A	!
!	!	!	!	!LO:LB:g=original	!
=52-	=52-	=52-	=52-	=52-	=52-
*	*	*	*	*lig	*
1AA	.	.	.	1A	-ni
!	!	!LO:TX:t=P:problem:# above	!	!	!
.	.	2c#X\	-li-	.	.
*Xlig	*	*	*	*	*
=53-	=53-	=53-	=53-	=53-	=53-
2D/	.	1d	-um	1F	.
*	*	*	*Xij	*	*
1F\	de-	.	.	.	.
*	*	*	*	*Xlig	*
=54-	=54-	=54-	=54-	=54-	=54-
.	.	1r	.	1G	.
2Eny\	-lic-	.	.	.	.
=55-	=55-	=55-	=55-	=55-	=55-
*lig	*	*	*	*lig	*
1D	-to-	2r	.	1F	Vin-
.	.	2Fny/	ab	.	.
!	!	!LO:SIC:v:s:t=custos G	!	!	!
!	!	!LO:LB:g=original	!	!	!
=56-	=56-	=56-	=56-	=56-	=56-
!	!	!	!	!LO:TX:a:t=P:problem:♭ above	!
1G	.	2G/	om-	1E-X	.
.	.	2B-/	-ni	.	.
*Xlig	*	*	*	*Xlig	*
=57-	=57-	=57-	=57-	=57-	=57-
*	*	*	*	*lig	*
1F	-rum	2.A/	Vin-	1F	.
.	.	4A/	-cu-	.	.
=58-	=58-	=58-	=58-	=58-	=58-
2r	.	2G/	-lo	1G	.
2C/	ab	2cny\	de-	.	.
*	*	*	*	*Xlig	*
=59-	=59-	=59-	=59-	=59-	=59-
2D/	om-	2B-\	-li-	1F	-cu-
2F\	-ni	2A\	-cto-	.	.
=60-	=60-	=60-	=60-	=60-	=60-
2.BB-/	Vin-	2B-\	.	1F	-lo
.	.	4F/	.	.	.
4BB-/	-cu-	4G/	.	.	.
!LO:SIC:v:s:t=custos AA	!	!	!	!	!
!LO:LB:g=original	!	!	!	!	!
=61-	=61-	=61-	=61-	=61-	=61-
1AA	-lo	4A\	.	1F	de-
.	.	4B-\	.	.	.
.	.	2c\	.	.	.
=62-	=62-	=62-	=62-	=62-	=62-
*	*	*	*	*lig	*
2BB-/	de-	2d\	.	1F	-li-
2AA/	-li-	2c\	.	.	.
=63-	=63-	=63-	=63-	=63-	=63-
0GG	-cto-	0B-	.	1G	.
*	*	*	*	*Xlig	*
=64-	=64-	=64-	=64-	=64-	=64-
*	*	*	*	*lig	*
.	.	.	.	1B-	.
=65-	=65-	=65-	=65-	=65-	=65-
1FF	-rum	1c	.	1A	.
*	*	*	*	*Xlig	*
=66-	=66-	=66-	=66-	=66-	=66-
2.BB-/	de-	2d\	.	1B-	.
.	.	4D/	.	.	.
4C/	.	4Eny/	.	.	.
=67-	=67-	=67-	=67-	=67-	=67-
*	*	*	*	*lig	*
4D/	.	4F/	.	1B-	-cto-
4BB-/	.	4D/	.	.	.
1E-X\	.	1G/	.	.	.
=68-	=68-	=68-	=68-	=68-	=68-
.	.	.	.	1G	.
2D/	-li-	2F/	.	.	.
*	*	*	*	*Xlig	*
=69-	=69-	=69-	=69-	=69-	=69-
*	*	*	*	*lig	*
1C	.	1E-X	.	1A	.
=70-	=70-	=70-	=70-	=70-	=70-
2.BB-/	-cto-	2D/	-rum	1B-	.
.	.	4r	.	.	.
*	*	*	*ij	*	*
4AA/	.	4F/	ab	.	.
*	*	*	*	*Xlig	*
!	!	!LO:SIC:v:s:t=custos G	!	!	!
!	!	!LO:LB:g=original	!	!	!
=71-	=71-	=71-	=71-	=71-	=71-
*	*	*	*	*lig	*
2GG/	-rum	2G/	om-	1B-	.
4r	.	2B-\	.	.	.
*	*ij	*	*	*	*
4BB-/	om-	.	.	.	.
=72-	=72-	=72-	=72-	=72-	=72-
2D\	-ni-	4F/	.	1A	.
.	.	4G/	.	.	.
2F\	-a	4A/	.	.	.
.	.	4F/	.	.	.
*	*	*	*	*Xlig	*
=73-	=73-	=73-	=73-	=73-	=73-
2.E-X\	vin-	2B-\	.	1G	.
.	.	2c\	.	.	.
4E-X\	-cu-	.	.	.	.
!LO:SIC:v:s:t=custos BB-	!	!	!	!	!
!LO:LB:g=original	!	!	!	!	!
=74-	=74-	=74-	=74-	=74-	=74-
*	*	*	*	*lig	*
1BB-	-lo	1d	-ni	1B-	.
=75-	=75-	=75-	=75-	=75-	=75-
1C	de-	1.c	Vin-	1A	.
*	*	*	*	*Xlig	*
=76-	=76-	=76-	=76-	=76-	=76-
*	*	*	*	*lig	*
1D	-li-	.	.	1F	.
!	!	!LO:TX:t=P:problem:# above	!	!	!
!	!	!LO:N:acc=#	!	!	!
.	.	2Bn\	-cu-	.	.
=77-	=77-	=77-	=77-	=77-	=77-
1C	-cto-	1c	-lo	1G	.
*	*	*	*	*Xlig	*
=78-	=78-	=78-	=78-	=78-	=78-
0FF;>	-rum	0A;<	.	0F;>	-rum
*	*Xij	*	*	*	*
!	!	!	!	!LO:LB:g=original	!
=79-||	=79-||	=79-||	=79-||	=79-||	=79-||
*clefF4	*	*clefC4	*	*clefC4	*
*k[b-]	*	*k[b-]	*	*k[b-]	*
*M4/4	*	*M4/4	*	*M4/4	*
*met(C)	*	*met(C)	*	*met(C)	*
!LO:TX:t=P:problem:w Bassus nie ma powtórzonego metrum	!	!	!	!	!
2r	.	1A	Et	1F	Et
2F\	Et	.	.	.	.
=80-	=80-	=80-	=80-	=80-	=80-
*lig	*	*	*	*lig	*
1D	gra-	2.A/	gra-	1F	gra-
.	.	4B-\	.	.	.
=81-	=81-	=81-	=81-	=81-	=81-
*col	*	*	*	*	*
2.C/	.	2.c\	.	1G	.
*Xlig	*	*	*	*Xlig	*
4C/	-ti-	4B-\	-ti-	.	.
*Xcol	*	*	*	*	*
=82-	=82-	=82-	=82-	=82-	=82-
1BB-	-a	2F/	-a	1B-	-ti-
*	*	*	*ij	*	*
.	.	2f\	et	.	.
=83-	=83-	=83-	=83-	=83-	=83-
1E-X	tu-	1e-X	.	1B-	-a
=84-	=84-	=84-	=84-	=84-	=84-
1BB-	-a	2d\	.	1B-	tu-
.	.	2.d\	gra-	.	.
=85-	=85-	=85-	=85-	=85-	=85-
2r	.	.	.	1B-	-a
.	.	4d\	-ti-	.	.
!	!	!LO:SIC:v:s:t=custos d	!	!	!
!	!	!LO:LB:g=original	!	!	!
2.G\	il-	2d\	-a	.	.
=86-	=86-	=86-	=86-	=86-	=86-
.	.	2B-\	gra-	1B-	il-
4G\	-lis	.	.	.	.
2G\	ſuc-	2d\	-ti-	.	.
=87-	=87-	=87-	=87-	=87-	=87-
1E-X	-cu-	2e-X\	-a	1B-	-lis
*	*	*	*Xij	*	*
.	.	4E-X/	tu-	.	.
.	.	4F/	.	.	.
!LO:SIC:v:s:t=custos E	!	!	!	!	!
!LO:PB:g=original	!	!	!	!	!
=88-	=88-	=88-	=88-	=88-	=88-
4Eny\	.	4G/	.	1B-	ſuc-
4F\	.	4A/	.	.	.
4G\	.	4B-\	.	.	.
4A\	.	4c\	.	.	.
=89-	=89-	=89-	=89-	=89-	=89-
2.B-\	.	1.d	.	1B-	-cu-
4A\	.	.	.	.	.
=90-	=90-	=90-	=90-	=90-	=90-
1G	-ren-	.	.	1B-	-ren-
.	.	2B-\	-a	.	.
=91-	=91-	=91-	=91-	=91-	=91-
*	*	*	*	*lig	*
2F\	-te	2.c\	il-	1A	.
2.F\	il-	.	.	.	.
.	.	4c\	-lis	.	.
=92-	=92-	=92-	=92-	=92-	=92-
.	.	1A	ſuc-	1c	.
4F\	-lis	.	.	.	.
2F\	ſuc-	.	.	.	.
*	*	*	*	*Xlig	*
=93-	=93-	=93-	=93-	=93-	=93-
*	*	*	*	*lig	*
1D	-cu-	2A/	-cu-	1d	.
.	.	2.d\	-ren-	.	.
=94-	=94-	=94-	=94-	=94-	=94-
2.G\	-ren-	.	.	1B-	.
.	.	4c\	.	.	.
.	.	1B-\	.	.	.
4F\	.	.	.	.	.
*	*	*	*	*Xlig	*
=95-	=95-	=95-	=95-	=95-	=95-
4E-X\	.	.	.	1G	.
4D\	.	.	.	.	.
2C/	.	2c\	.	.	.
=96-	=96-	=96-	=96-	=96-	=96-
*lig	*	*lig	*	*lig	*
1BB-	.	1d	.	1B-	-te
=97-	=97-	=97-	=97-	=97-	=97-
*	*	*col	*	*	*
1C	.	2.c\	.	1G	.
.	.	4B-\	.	.	.
*Xlig	*	*Xlig	*	*Xlig	*
*	*	*Xcol	*	*	*
=98-	=98-	=98-	=98-	=98-	=98-
*	*	*lig	*	*lig	*
1FF	-te	1A	-te	1F	.
=99-	=99-	=99-	=99-	=99-	=99-
2r	.	1B-	.	1G	.
2BB-/	me-	.	.	.	.
*	*	*Xlig	*	*Xlig	*
=100-	=100-	=100-	=100-	=100-	=100-
*	*	*	*	*lig	*
2D/	-re-	2r	.	1F	.
2F\	-an-	2F/	il-	.	.
=101-	=101-	=101-	=101-	=101-	=101-
1E-X	-tur	2G/	-lis	1B-	.
.	.	1B-\	ſuc-	.	.
*	*	*	*	*Xlig	*
!	!	!LO:SIC:v:s:t=custos G	!	!	!
!	!	!LO:LB:g=original	!	!	!
=102-	=102-	=102-	=102-	=102-	=102-
1E-X	e-	.	.	1G	.
.	.	2G/	-cur-	.	.
=103-	=103-	=103-	=103-	=103-	=103-
*	*	*	*	*lig	*
2.BB-/	-ua-	2F/	.	1B-	.
.	.	2.F/	-ren-	.	.
4C/	.	.	.	.	.
!LO:SIC:v:s:t=custos D	!	!	!	!	!
!LO:LB:g=original	!	!	!	!	!
=104-	=104-	=104-	=104-	=104-	=104-
2.D/	.	.	.	1F	.
.	.	4G/	.	.	.
.	.	4A\	.	.	.
4D/	-de-	4B-\	.	.	.
*	*	*	*	*Xlig	*
!	!	!	!	!LO:SIC:v:s:t=custos E	!
!	!	!	!	!LO:LB:g=original	!
=105-	=105-	=105-	=105-	=105-	=105-
1C	-re	2.c\	.	1E-X	.
.	.	4c\	.	.	.
=106-	=106-	=106-	=106-	=106-	=106-
2r	.	4G/	.	1E-X	me-
.	.	4F/	.	.	.
*	*ij	*	*	*	*
2E-X\	me-	4G/	.	.	.
.	.	4A/	.	.	.
=107-	=107-	=107-	=107-	=107-	=107-
1G	-re-	1B-	-te	1E-X	-re-
=108-	=108-	=108-	=108-	=108-	=108-
*	*	*	*	*lig	*
2.B-\	-an-	0r	.	1G	-an-
4A\	.	.	.	.	.
=109-	=109-	=109-	=109-	=109-	=109-
1G	.	.	.	1B-	.
*	*	*	*	*Xlig	*
=110-	=110-	=110-	=110-	=110-	=110-
*	*	*	*	*lig	*
1F	-tur	1c	me-	1A	-tur
=111-	=111-	=111-	=111-	=111-	=111-
1D	e-	2d\	-re-	1F	.
.	.	1f\	-an-	.	.
*	*	*	*	*Xlig	*
=112-	=112-	=112-	=112-	=112-	=112-
2.C/	-ua-	.	.	1G	.
.	.	2eny\	.	.	.
4C/	-de-	.	.	.	.
=113-	=113-	=113-	=113-	=113-	=113-
*	*	*	*	*lig	*
1FF	-re	2f\	-tur	1F	e-
*	*Xij	*	*	*	*
.	.	2F/	e-	.	.
=114-	=114-	=114-	=114-	=114-	=114-
!	!	!	!	!LO:TX:a:t=P:problem:♭ above	!
2r	.	2G/	-ua-	1E-X	.
2C/	iu-	1c\	-de-	.	.
*	*	*	*	*Xlig	*
=115-	=115-	=115-	=115-	=115-	=115-
*	*	*	*	*lig	*
2.D/	-di-	.	.	1F	-ua-
!	!	!LO:TX:t=P:problem:# above	!	!	!
!	!	!LO:N:acc=#	!	!	!
.	.	2Bn\	.	.	.
4D/	-ci-	.	.	.	.
=116-	=116-	=116-	=116-	=116-	=116-
1C	-um	2.c\	.	1G	.
.	.	4B-y\	.	.	.
*	*	*	*	*Xlig	*
=117-	=117-	=117-	=117-	=117-	=117-
2.F\	Vl-	2A\	-re	1F	-de-
.	.	2A\	iu-	.	.
4Eny\	.	.	.	.	.
=118-	=118-	=118-	=118-	=118-	=118-
2D/	.	2.B-\	-di-	1F	-re
2BB-/	-ti-	.	.	.	.
.	.	4B-\	-ci-	.	.
=119-	=119-	=119-	=119-	=119-	=119-
2.F\	-o-	0A	-um	1F	iu-
4E\	.	.	.	.	.
=120-	=120-	=120-	=120-	=120-	=120-
*	*	*	*	*lig	*
4D/	.	.	.	1F	-di-
4C/	.	.	.	.	.
4BB-/	.	.	.	.	.
4AA/	.	.	.	.	.
!LO:LB:g=original	!	!LO:PB:g=original	!	!	!
=121-	=121-	=121-	=121-	=121-	=121-
2BB-/	.	2r	.	1G	.
2C/	.	2G/	iu-	.	.
*	*	*	*	*Xlig	*
=122-	=122-	=122-	=122-	=122-	=122-
*lig	*	*	*	*	*
1FF	.	2.A/	-di-	1F	-ci-
.	.	4A/	-ci-	.	.
=123-	=123-	=123-	=123-	=123-	=123-
1BB-	.	2F/	-um	1F	-um
.	.	1B-\	Vl-	.	.
*Xlig	*	*	*	*	*
=124-	=124-	=124-	=124-	=124-	=124-
*	*	*	*	*lig	*
1FF	-nis	.	.	1F	Vl-
.	.	2A/	-ti-	.	.
=125-	=125-	=125-	=125-	=125-	=125-
0r	.	2.B-\	-o-	1G	.
.	.	4A\	.	.	.
*	*	*	*	*Xlig	*
=126-	=126-	=126-	=126-	=126-	=126-
.	.	4G\	.	1B-	.
.	.	4A\	.	.	.
.	.	4B-\	.	.	.
.	.	4G\	.	.	.
=127-	=127-	=127-	=127-	=127-	=127-
1FF	iu-	1c	.	1A	-ti-
=128-	=128-	=128-	=128-	=128-	=128-
*	*	*	*	*lig	*
2.GG/	-di-	1B-	-nis	1G	-o-
4GG/	-ci-	.	.	.	.
=129-	=129-	=129-	=129-	=129-	=129-
2FF/	-um	2r	.	1A	.
*	*	*	*ij	*	*
2F\	Vl-	2c\	iu-	.	.
*	*	*	*	*Xlig	*
=130-	=130-	=130-	=130-	=130-	=130-
1D	-ti-	2.d\	-di-	1B-	.
.	.	4d\	-ci-	.	.
=131-	=131-	=131-	=131-	=131-	=131-
*	*	*	*	*lig	*
1G	-o-	1B-	-um	1B-	.
=132-	=132-	=132-	=132-	=132-	=132-
1F	-nis	2c\	Vl-	1A	.
.	.	1f\	.	.	.
*	*	*	*	*Xlig	*
=133-	=133-	=133-	=133-	=133-	=133-
2.C/	Vl-	.	.	1G	.
.	.	2e\	.	.	.
4C/	-ti-	.	.	.	.
=134-	=134-	=134-	=134-	=134-	=134-
*	*	*	*	*lig	*
4BB-/	-o-	1d	.	1B-	.
4C/	.	.	.	.	.
4D/	.	.	.	.	.
4BB-/	.	.	.	.	.
=135-	=135-	=135-	=135-	=135-	=135-
*lig	*	*	*	*	*
1C	.	1.c	.	1G	.
*	*	*	*	*Xlig	*
!	!	!	!	!LO:PB:g=original	!
=136-	=136-	=136-	=136-	=136-	=136-
*	*	*	*	*lig	*
1D	.	.	.	1F	.
!	!	!LO:TX:t=P:problem:# above	!	!	!
!	!	!LO:N:acc=#	!	!	!
.	.	2Bn\	-ti-	.	.
*Xlig	*	*	*	*	*
=137-	=137-	=137-	=137-	=137-	=137-
1C	.	1c	-o-	1G	.
*	*	*	*	*Xlig	*
=138-	=138-	=138-	=138-	=138-	=138-
0FF;>	-nis	0A;<	-nis	0F;>	-nis
*	*	*	*Xij	*	*
!LO:LB:g=original	!	!LO:PB:g=original	!	!	!
=139-||	=139-||	=139-||	=139-||	=139-||	=139-||
*clefF4	*	*clefC4	*	*clefC4	*
*k[b-]	*	*k[b-]	*	*k[b-]	*
*M4/4	*	*M4/4	*	*M4/4	*
*met(C)	*	*met(C)	*	*met(C)	*
!LO:TX:t=P:problem:w Bassus nie ma powtórzonego metrum	!	!	!	!	!
1FF	Et	1A	Et	1F	Et
=140-	=140-	=140-	=140-	=140-	=140-
*	*	*	*	*lig	*
1BB-	lu-	1B-	lu-	1F	lu-
=141-	=141-	=141-	=141-	=141-	=141-
2BB-/	-cis	2F/	-cis	1B-	.
2BB-/	ae-	2F/	ae-	.	.
*	*	*	*	*Xlig	*
=142-	=142-	=142-	=142-	=142-	=142-
0GG	-ter-	0G	-ter-	1B-	-cis
=143-	=143-	=143-	=143-	=143-	=143-
.	.	.	.	1B-	ae-
=144-	=144-	=144-	=144-	=144-	=144-
*	*	*	*	*lig	*
1FF	-nae	1c	-nae	1A	-ter-
=145-	=145-	=145-	=145-	=145-	=145-
*	*ij	*	*ij	*	*
1F	et	2r	.	1c	.
.	.	2A/	et	.	.
*	*	*	*	*Xlig	*
=146-	=146-	=146-	=146-	=146-	=146-
*	*	*	*	*lig	*
2B-\	lu-	2B-\	lu-	1d	.
4B-\	-cis	4B-\	-cis	.	.
4A\	.	4c\	.	.	.
=147-	=147-	=147-	=147-	=147-	=147-
2.G\	ae-	2d\	ae-	1B-	.
.	.	2B-\	.	.	.
4F\	.	.	.	.	.
*	*	*	*	*Xlig	*
=148-	=148-	=148-	=148-	=148-	=148-
1E-X	.	1e-X	.	1G	.
=149-	=149-	=149-	=149-	=149-	=149-
*	*	*	*	*lig	*
4BB-/	.	1d	.	1B-	-nae
4C/	.	.	.	.	.
4D/	.	.	.	.	.
4BB-/	.	.	.	.	.
=150-	=150-	=150-	=150-	=150-	=150-
1C	.	2.c\	.	1G	.
.	.	4B-\	.	.	.
*	*	*	*	*Xlig	*
=151-	=151-	=151-	=151-	=151-	=151-
*lig	*	*	*	*	*
1D	-ter-	4A\	.	1F	.
.	.	4G\	.	.	.
.	.	1F/	-ter-	.	.
=152-	=152-	=152-	=152-	=152-	=152-
*	*	*	*	*lig	*
1C	.	.	.	1G	.
.	.	2E/	.	.	.
*Xlig	*	*	*	*	*
=153-	=153-	=153-	=153-	=153-	=153-
2FF/	-nae	2F/	-nae	1F	.
*	*Xij	*	*Xij	*	*
2BB-/	be-	2d\	be-	.	.
*	*	*	*	*Xlig	*
!	!	!	!	!LO:SIC:v:s:t=custos B-	!
!	!	!	!	!LO:LB:g=original	!
=154-	=154-	=154-	=154-	=154-	=154-
*	*	*	*	*lig	*
2BB-/	-a-	2d\	-a-	1B-	.
2BB-/	-ti-	2d\	-ti-	.	.
!	!	!LO:SIC:v:s:t=custos e	!	!	!
!	!	!LO:LB:g=original	!	!	!
=155-	=155-	=155-	=155-	=155-	=155-
2.C/	-tu-	2.e-X\	-ru-	1G	.
4C/	-di-	4e-\	-di-	.	.
*	*	*	*	*Xlig	*
!LO:SIC:v:s:t=custos BB-	!	!	!	!	!
!LO:LB:g=original	!	!	!	!	!
=156-	=156-	=156-	=156-	=156-	=156-
*	*	*	*	*lig	*
2BB-/	-ne	2d\	-ne	1B-	.
1B-\	per-	1d\	per-	.	.
=157-	=157-	=157-	=157-	=157-	=157-
.	.	.	.	1F	.
2A\	.	1c\	.	.	.
*	*	*	*	*Xlig	*
=158-	=158-	=158-	=158-	=158-	=158-
1G	-fru-	.	.	1E-X	.
.	.	2B-\	-fru-	.	.
=159-	=159-	=159-	=159-	=159-	=159-
1D	-i	1A	-i	1F	be-
=160-	=160-	=160-	=160-	=160-	=160-
1r	.	2A/	be-	1F	-a-
.	.	2A/	-a-	.	.
=161-	=161-	=161-	=161-	=161-	=161-
1BB-	be-	2B-\	-ti-	1F	-ti-
.	.	2.d\	-tu-	.	.
=162-	=162-	=162-	=162-	=162-	=162-
*	*	*	*	*lig	*
2BB-/	-a-	.	.	1G	-tu-
.	.	4d\	-di-	.	.
2C/	-ti-	1c\	.	.	.
=163-	=163-	=163-	=163-	=163-	=163-
2.D/	-tu-	.	.	1F	.
!	!	!LO:TX:t=P:problem:# above	!	!	!
!	!	!LO:N:acc=#	!	!	!
.	.	2Bn\	.	.	.
4D/	-di-	.	.	.	.
*	*	*	*	*Xlig	*
=164-	=164-	=164-	=164-	=164-	=164-
*	*	*	*	*lig	*
2C/	-ne	1c	-ne	1G	.
2C/	lu-	.	.	.	.
=165-	=165-	=165-	=165-	=165-	=165-
1BB-	-cis	2.F/	per-	1B-	.
.	.	4G/	-fru-	.	.
*	*	*	*	*Xlig	*
=166-	=166-	=166-	=166-	=166-	=166-
2r	.	1A	-i	1F	-di-
*	*ij	*	*	*	*
2D/	be-	.	.	.	.
=167-	=167-	=167-	=167-	=167-	=167-
2D/	-a-	2r	.	1F	-ne
*	*	*	*ij	*	*
2D/	-ti-	2B-y\	be-	.	.
=168-	=168-	=168-	=168-	=168-	=168-
*	*	*	*	*lig	*
2.E-X\	-tu-	2B-\	-a-	1G	per-
.	.	2c\	-ti-	.	.
4E-\	-di-	.	.	.	.
=169-	=169-	=169-	=169-	=169-	=169-
1D	-ne	2.d\	-tu-	1F	.
*	*Xij	*	*	*	*
.	.	4d\	-di-	.	.
*	*	*	*	*Xlig	*
=170-	=170-	=170-	=170-	=170-	=170-
2.C/	per-	1.e-X	-ne	1E-X	.
4D/	.	.	.	.	.
!LO:SIC:v:s:t=custos E	!	!	!	!	!
!LO:LB:g=original	!	!	!	!	!
=171-	=171-	=171-	=171-	=171-	=171-
*	*	*	*	*lig	*
4E-X\	.	.	.	1E-X	.
4F\	.	.	.	.	.
2.G\	.	2.B-\	per-	.	.
=172-	=172-	=172-	=172-	=172-	=172-
.	.	.	.	1G	.
4A\	.	4c\	.	.	.
!	!	!LO:SIC:v:s:t=custos d	!	!	!
!	!	!LO:LB:g=original	!	!	!
2.B-\	.	2.d\	.	.	.
*	*	*	*	*Xlig	*
=173-	=173-	=173-	=173-	=173-	=173-
*	*	*	*	*lig	*
.	.	.	.	1B-	.
4A\	.	4c\	.	.	.
2G\	.	1B-\	.	.	.
=174-	=174-	=174-	=174-	=174-	=174-
1F	-fru-	.	.	1c	.
.	.	2A/	-fru-	.	.
*	*	*	*	*Xlig	*
=175-	=175-	=175-	=175-	=175-	=175-
2BB-/	-i	1B-	-i	1B-	.
*	*ij	*	*Xij	*	*
2D/	be-	.	.	.	.
=176-	=176-	=176-	=176-	=176-	=176-
*	*	*	*	*lig	*
2D/	-a-	0r	.	1B-	-fru-
2Eny\	-ti-	.	.	.	.
=177-	=177-	=177-	=177-	=177-	=177-
2.F\	-tu-	.	.	1A	.
4F\	-di-	.	.	.	.
*	*	*	*	*Xlig	*
=178-	=178-	=178-	=178-	=178-	=178-
*	*	*	*	*lig	*
1G	-ne	2r	.	1B-	.
*	*Xij	*	*	*	*
.	.	2B-\	be-	.	.
=179-	=179-	=179-	=179-	=179-	=179-
1E-X	lu-	2B-\	-a-	1G	.
.	.	2c\	-ti-	.	.
*	*	*	*	*Xlig	*
!	!	!	!	!LO:SIC:v:s:t=custos F	!
!	!	!	!	!LO:LB:g=original	!
=180-	=180-	=180-	=180-	=180-	=180-
2D/	-cis	2.d\	-tu-	1F	.
2BB-/	be-	.	.	.	.
.	.	4d\	-di-	.	.
=181-	=181-	=181-	=181-	=181-	=181-
*	*	*	*	*lig	*
2BB-/	-a-	2d\	-ne	1G	.
2C/	-ti-	1c\	per-	.	.
=182-	=182-	=182-	=182-	=182-	=182-
2.D/	-tu-	.	.	1F	.
!	!	!LO:N:acc=#	!	!	!
!	!	!LO:TX:t=P:problem:# above	!	!	!
.	.	2Bn\	-fru-	.	.
4D/	-di-	.	.	.	.
*	*	*	*	*Xlig	*
=183-	=183-	=183-	=183-	=183-	=183-
1C	-ne	2c\	-i	1E-X	.
.	.	4G/	.	.	.
.	.	4A/	.	.	.
=184-	=184-	=184-	=184-	=184-	=184-
2.BB-/	.	4B-y\	.	1F	.
.	.	4c\	.	.	.
.	.	2.d\	.	.	.
4AA/	.	.	.	.	.
!LO:SIC:v:s:t=custos GG	!	!	!	!	!
!LO:LB:g=original	!	!	!	!	!
=185-	=185-	=185-	=185-	=185-	=185-
*lig	*	*	*	*lig	*
1GG	.	.	.	1B-	.
.	.	4c\	.	.	.
.	.	1B-\	.	.	.
=186-	=186-	=186-	=186-	=186-	=186-
1FF	.	.	.	1c	.
.	.	2A/	.	.	.
*Xlig	*	*	*	*Xlig	*
=187-	=187-	=187-	=187-	=187-	=187-
*	*	*	*	*lig	*
2BB-/	.	1B-	.	1B-	.
2BB-/	.	.	.	.	.
=188-	=188-	=188-	=188-	=188-	=188-
2C/	.	0r	.	1A	.
2D/	.	.	.	.	.
*	*	*	*	*Xlig	*
=189-	=189-	=189-	=189-	=189-	=189-
*	*	*	*	*lig	*
2.E-X\	.	.	.	1G	.
4E-\	.	.	.	.	.
=190-	=190-	=190-	=190-	=190-	=190-
1D	.	2r	.	1F	.
.	.	2A/	.	.	.
*	*	*	*	*Xlig	*
=191-	=191-	=191-	=191-	=191-	=191-
*	*	*	*	*lig	*
2GG/	.	2B-\	.	1G	.
2AA/	.	2c\	.	.	.
!	!	!LO:SIC:v:s:t=custos d	!	!	!
!	!	!LO:LB:g=original	!	!	!
=192-	=192-	=192-	=192-	=192-	=192-
4BB-/	.	2.d\	.	1F	.
4C/	.	.	.	.	.
2D/	.	.	.	.	.
.	.	4d\	.	.	.
*	*	*	*	*Xlig	*
=193-	=193-	=193-	=193-	=193-	=193-
0C	.	2G/	.	1E-X	.
.	.	2.c\	.	.	.
=194-	=194-	=194-	=194-	=194-	=194-
.	.	.	.	1G	.
.	.	4d\	.	.	.
.	.	4e-X\	.	.	.
.	.	4c\	.	.	.
=195-	=195-	=195-	=195-	=195-	=195-
*	*	*	*	*lig	*
1BB-	.	1d	.	1B-	.
=196-	=196-	=196-	=196-	=196-	=196-
1C	.	2.c\	.	1G	.
.	.	4B-\	.	.	.
*	*	*	*	*Xlig	*
=197-	=197-	=197-	=197-	=197-	=197-
*lig	*	*	*	*lig	*
1FF	.	4A\	.	1A	.
.	.	4G\	.	.	.
.	.	1F/	.	.	.
=198-	=198-	=198-	=198-	=198-	=198-
1C	.	.	.	1G	.
.	.	2E/	.	.	.
*Xlig	*	*	*	*Xlig	*
=199-	=199-	=199-	=199-	=199-	=199-
1FF	.	1F	.	[>0F	-i
=200-	=200-	=200-	=200-	=200-	=200-
2r	.	2r	.	.	.
2F\	per-	2A/	.	.	.
=201-	=201-	=201-	=201-	=201-	=201-
2D/	.	2B-\	.	0F_>	.
2C/	.	2c\	.	.	.
!LO:SIC:v:s:t=custos BB-	!	!	!	!	!
!LO:LB:g=original	!	!	!	!	!
=202-	=202-	=202-	=202-	=202-	=202-
2.BB-/	.	2.d\	.	.	.
4BB-/	.	4d\	.	.	.
=203-	=203-	=203-	=203-	=203-	=203-
1AA	-fru-	1.c	.	0F_>	.
=204-	=204-	=204-	=204-	=204-	=204-
1BB-	-i	.	.	.	.
.	.	1B-\	.	.	.
=205-	=205-	=205-	=205-	=205-	=205-
[0FF;>l	.	.	.	0F;<_>l	.
.	.	4A\	.	.	.
.	.	4G\	.	.	.
=206-	=206-	=206-	=206-	=206-	=206-
.	.	0A;<	.	.	.
=207-	=207-	=207-	=207-	=207-	=207-
1FF]	.	.	.	1F]	.
=-	=-	=-	=-	=-	=-
*-	*-	*-	*-	*-	*-
!!!system-decoration: [(g1)]
!!!RDF**kern: l = terminal long
!!!RDF**kern: > = above
!!!RDF**kern: < = below
!!!AIN: 1 bass 1 soprn 1 tenor
!!!ENC: Mateusz Solarz
!!!END: 2021-10-28
!!!EED: Jędrzej Mróz
!!!EST: 2021-12-22
